packages/dnb-eufemia/assets/icons/file_xls_medium.svg

<svg width="24" height="24" viewBox="0 0 24 24" fill="none" xmlns="http://www.w3.org/2000/svg">
<path d="M13 23H2.5C1.94772 23 1.5 22.5523 1.5 22V2C1.5 1.44772 1.94772 1 2.5 1H12.5362C12.8304 1 13.1096 1.12951 13.2996 1.35406L18.2634 7.22036C18.4162 7.40092 18.5 7.62979 18.5 7.86631V9" stroke="black" stroke-width="1.5" stroke-linecap="round" stroke-linejoin="round"/>
<path d="M11.4118 18.9999L9.39177 15.3999L11.3218 11.9999H9.67177L8.62177 14.1099L7.61177 11.9999H5.90177L7.82177 15.4999L5.81177 18.9999H7.53177L8.60177 16.8599L9.63177 18.9999H11.4118Z" fill="black"/>
<path d="M14.1079 17.7999V11.9999H12.6079V18.9999H17.2079V17.7999H14.1079Z" fill="black"/>
<path d="M21.044 19.0999C22.584 19.0999 23.554 18.2699 23.554 16.9499C23.554 15.9099 22.914 15.2199 21.604 14.8699L20.934 14.6899C20.334 14.5299 20.104 14.3099 20.104 13.8899C20.104 13.4399 20.494 13.1399 21.084 13.1399C21.594 13.1399 22.004 13.4699 22.104 13.9799L23.384 13.3799C23.204 12.4999 22.264 11.8999 21.064 11.8999C19.624 11.8999 18.604 12.7699 18.604 13.9799C18.604 15.0299 19.214 15.6999 20.474 16.0399L21.144 16.2199C21.814 16.3999 22.054 16.6399 22.054 17.0899C22.054 17.5699 21.674 17.8599 21.044 17.8599C20.404 17.8599 20.064 17.5699 19.724 16.7099L18.474 17.4399C18.844 18.5499 19.704 19.0999 21.044 19.0999Z" fill="black"/>
</svg>

<svg width="24" height="24" viewBox="0 0 24 24" fill="none" xmlns="http://www.w3.org/2000/svg"><path d="M13 23H2.5a1 1 0 0 1-1-1V2a1 1 0 0 1 1-1h10.036a1 1 0 0 1 .764.354l4.963 5.866a1 1 0 0 1 .237.646V9" stroke="#000" stroke-width="1.5" stroke-linecap="round" stroke-linejoin="round"/><path d="m11.412 19-2.02-3.6 1.93-3.4h-1.65l-1.05 2.11L7.612 12h-1.71l1.92 3.5-2.01 3.5h1.72l1.07-2.14L9.632 19h1.78Zm2.696-1.2V12h-1.5v7h4.6v-1.2h-3.1Zm6.936 1.3c1.54 0 2.51-.83 2.51-2.15 0-1.04-.64-1.73-1.95-2.08l-.67-.18c-.6-.16-.83-.38-.83-.8 0-.45.39-.75.98-.75.51 0 .92.33 1.02.84l1.28-.6c-.18-.88-1.12-1.48-2.32-1.48-1.44 0-2.46.87-2.46 2.08 0 1.05.61 1.72 1.87 2.06l.67.18c.67.18.91.42.91.87 0 .48-.38.77-1.01.77-.64 0-.98-.29-1.32-1.15l-1.25.73c.37 1.11 1.23 1.66 2.57 1.66Z" fill="#000"/></svg>
